X: 23
T: No_30_Dream_Dance_Song.krn
N: Derived from No_30_Dream_Dance_Song.krn
%%abc-version 2.0
%%abcx-abcm2ps-target-version 5.9.1 (29 Sep 2008)
%%abc-creator hum2abc beta
%%abcx-conversion-date 2019/03/15 08:35:00
%%humdrum-veritas 2279744504
%%humdrum-veritas-data 3000897949
%%linebreak <none>
%%barnumbers 0
L: 1/16
M: 2/4
K: E clef=bass
[K:clef=bass][M:2/4]E,2G,G, G,2F,F, | 
G,G,2F, F,F, z2 | 
G,2B,G, G,2F,E, | 
F,F,2E, C,C, z2 | 
F,F,F,2 G,2F,2 | 
G,G,2F, F,F, z2 | 
G,2B,G, G,2F,E, | 
F,F,2E, C,C, z2 | 
G,G,G,2 G,2F,2 | 
G,G,F,2 F,F, z2 | 
G,/G,3/B,3/G,/ G,2F,E, | 
F,F,2F, F,2F, z | 
G,/G,3/B,3/G,/ G,2F,E, | 
F,F,2E, C,2C, z | 
F,2F,F, G,2F,F, | 
G,3F, F,2F, z | 
G,2B,3/G,/ G,2F,E, | 
F,3E, C,2C, z | 
F,2F,F, G,2F,F, | 
G,3F, F,F, z2 | 
G,/G,3/B,3/G,/ G,2F,E, | 
F,F,2F, F,F, z2 | 
G,/G,3/B,3/G,/ G,2F,E, | 
F,F,2E, C,2C, z |]  



